Consultive_Pack-2/Consultive_Html/images/logos/information.svg

<svg xmlns="http://www.w3.org/2000/svg" viewBox="0 0 64 64" id="information"><path d="M16.31345,39.48727a.999.999,0,0,0-.9996-.9996h-.31824V33.45843a.9996.9996,0,1,0-1.9992,0v5.02924h-.31823a.99961.99961,0,0,0,0,1.99921h2.63567A.999.999,0,0,0,16.31345,39.48727Z" fill="#021b79" class="color000000 svgShape"></path><path d="M23.992,33.99728a9.996,9.996,0,1,0-9.996,9.996A10.01249,10.01249,0,0,0,23.992,33.99728Zm-17.99283,0A7.99681,7.99681,0,1,1,13.996,41.99409,8.00742,8.00742,0,0,1,5.9992,33.99728Z" fill="#021b79" class="color000000 svgShape"></path><circle cx="13.996" cy="28.949" r="1.439" fill="#021b79" class="color000000 svgShape"></circle><path d="M58.80626 36.48652L49.61755 27.2978a1.02892 1.02892 0 00-1.4135 0l-4.241-4.241 2.12025-2.12025a2.33462 2.33462 0 001.76736.93755c1.08715.11055 2.11757-1.36219 2.827-1.99822a2.00018 2.00018 0 000-2.82694L42.90343 9.27472a2.00783 2.00783 0 00-2.828-.001l-1.41252 1.4135a2.096 2.096 0 00.35246 3.18129l-8.482 8.482a2.10226 2.10226 0 00-3.18037-.35332l-1.4135 1.41344a2.00025 2.00025 0 000 2.827l7.77522 7.77522a2.00114 2.00114 0 002.827 0l1.4135-1.4135a2.09637 2.09637 0 00-.35393-3.18086l2.1208-2.12074 4.24147 4.24147a.99924.99924 0 000 1.4135l9.18872 9.18872C56.96593 45.76767 62.442 40.31946 58.80626 36.48652zM41.489 10.68724l7.77522 7.77522-1.4135 1.41447-7.77522-7.77522zM35.12821 32.5994L27.353 24.82418l1.4135-1.4135 7.77522 7.77522zM36.18784 28.005l-4.241-4.241 8.482-8.482 4.241 4.241zm4.94774-2.12074l1.414-1.414 4.24117 4.24116-1.41386 1.41411zM57.39277 40.728a2.05008 2.05008 0 01-2.827 0l-8.482-8.482 2.827-2.828 8.482 8.482A2.00906 2.00906 0 0157.39277 40.728zM34.87733 53.30891h-.70968v-2.4092a2.99208 2.99208 0 00-2.98806-2.989H14.69593a2.99292 2.99292 0 00-2.989 2.989v2.4092h-.70968a.9996.9996 0 100 1.9992H34.87733a.9996.9996 0 000-1.9992zm-2.70888 0H13.70609v-2.4092a.99111.99111 0 01.98984-.98983H31.17959a.99027.99027 0 01.98886.98983z" fill="#021b79" class="color000000 svgShape"></path></svg>

<svg width="64" height="64" viewBox="0 0 64 64" fill="none" xmlns="http://www.w3.org/2000/svg">
<path d="M16.3114 39.4874C16.3115 39.3561 16.2857 39.2261 16.2355 39.1048C16.1853 38.9835 16.1116 38.8733 16.0188 38.7804C15.926 38.6876 15.8157 38.614 15.6944 38.5638C15.5731 38.5135 15.4431 38.4877 15.3118 38.4878H14.9936V33.4586C14.9936 33.1935 14.8883 32.9392 14.7008 32.7518C14.5133 32.5643 14.2591 32.459 13.994 32.459C13.7289 32.459 13.4746 32.5643 13.2871 32.7518C13.0997 32.9392 12.9944 33.1935 12.9944 33.4586V38.4878H12.6761C12.4116 38.4887 12.1581 38.5943 11.9713 38.7817C11.7846 38.9691 11.6797 39.2229 11.6797 39.4874C11.6797 39.752 11.7846 40.0058 11.9713 40.1931C12.1581 40.3805 12.4116 40.4862 12.6761 40.487H15.3118C15.4431 40.4871 15.5731 40.4613 15.6944 40.4111C15.8157 40.3609 15.926 40.2873 16.0188 40.1944C16.1116 40.1016 16.1853 39.9914 16.2355 39.87C16.2857 39.7487 16.3115 39.6187 16.3114 39.4874Z" fill="url(#paint0_linear_11909_41689)"/>
<path d="M23.992 33.998C23.992 32.0209 23.4057 30.0883 22.3074 28.4445C21.209 26.8006 19.6478 25.5194 17.8213 24.7629C15.9948 24.0063 13.9849 23.8083 12.0459 24.194C10.1068 24.5797 8.32573 25.5318 6.92777 26.9297C5.5298 28.3277 4.57777 30.1088 4.19207 32.0478C3.80638 33.9869 4.00433 35.9967 4.7609 37.8233C5.51748 39.6498 6.79869 41.211 8.44252 42.3093C10.0864 43.4077 12.019 43.994 13.996 43.994C16.6458 43.9896 19.1858 42.935 21.0594 41.0614C22.9331 39.1877 23.9876 36.6477 23.992 33.998ZM5.99917 33.998C5.99917 32.4163 6.46818 30.8702 7.34688 29.5552C8.22558 28.2401 9.47451 27.2151 10.9357 26.6099C12.397 26.0046 14.0048 25.8462 15.5561 26.1548C17.1073 26.4634 18.5322 27.225 19.6506 28.3434C20.769 29.4617 21.5306 30.8866 21.8391 32.4378C22.1477 33.9891 21.9893 35.597 21.3841 37.0582C20.7788 38.5194 19.7539 39.7683 18.4388 40.6471C17.1237 41.5258 15.5776 41.9948 13.996 41.9948C11.876 41.992 9.8436 41.1485 8.34451 39.6495C6.84543 38.1504 6.00198 36.118 5.99917 33.998Z" fill="url(#paint1_linear_11909_41689)"/>
<path d="M13.9937 30.3878C14.7884 30.3878 15.4327 29.7435 15.4327 28.9488C15.4327 28.154 14.7884 27.5098 13.9937 27.5098C13.1989 27.5098 12.5547 28.154 12.5547 28.9488C12.5547 29.7435 13.1989 30.3878 13.9937 30.3878Z" fill="url(#paint2_linear_11909_41689)"/>
<path d="M58.8086 36.4861L49.6199 27.2973C49.4289 27.1168 49.176 27.0162 48.9132 27.0162C48.6503 27.0162 48.3974 27.1168 48.2064 27.2973L43.9654 23.0563L46.0857 20.9361C46.2924 21.2136 46.5582 21.4416 46.8638 21.6038C47.1695 21.7659 47.5074 21.8581 47.853 21.8736C48.9402 21.9842 49.9706 20.5114 50.68 19.8754C51.0546 19.5004 51.265 18.992 51.265 18.4619C51.265 17.9319 51.0546 17.4235 50.68 17.0485L42.9058 9.27426C42.5298 8.90109 42.0217 8.69159 41.492 8.69141C40.9623 8.69122 40.454 8.90036 40.0778 9.27326L38.6653 10.6868C38.4557 10.9079 38.2969 11.1721 38.1999 11.461C38.1028 11.7498 38.07 12.0563 38.1035 12.3592C38.1371 12.662 38.2362 12.9539 38.3941 13.2145C38.552 13.4751 38.7648 13.6981 39.0177 13.868L30.5357 22.35C30.3651 22.0981 30.1419 21.8862 29.8814 21.729C29.621 21.5717 29.3295 21.4729 29.0271 21.4393C28.7247 21.4057 28.4186 21.4382 28.13 21.5344C27.8414 21.6306 27.5771 21.7884 27.3554 21.9967L25.9419 23.4102C25.5673 23.7852 25.3569 24.2936 25.3569 24.8237C25.3569 25.3537 25.5673 25.8621 25.9419 26.2372L33.7171 34.0124C34.0922 34.3867 34.6006 34.597 35.1306 34.597C35.6606 34.597 36.1689 34.3867 36.5441 34.0124L37.9576 32.5989C38.1669 32.3776 38.3255 32.1133 38.4223 31.8245C38.5192 31.5356 38.5519 31.2292 38.5182 30.9264C38.4845 30.6236 38.3852 30.3318 38.2273 30.0713C38.0693 29.8108 37.8565 29.5879 37.6036 29.418L39.7244 27.2973L43.9659 31.5388C43.8731 31.6316 43.7994 31.7417 43.7492 31.863C43.6989 31.9843 43.6731 32.1142 43.6731 32.2455C43.6731 32.3768 43.6989 32.5068 43.7492 32.628C43.7994 32.7493 43.8731 32.8595 43.9659 32.9523L53.1546 42.141C56.9683 45.7672 62.4443 40.319 58.8086 36.4861ZM41.4913 10.6868L49.2666 18.462L47.8531 19.8765L40.0779 12.1012L41.4913 10.6868ZM35.1306 32.5989L27.3554 24.8237L28.7689 23.4102L36.5441 31.1854L35.1306 32.5989ZM36.1902 28.0045L31.9492 23.7635L40.4312 15.2815L44.6722 19.5225L36.1902 28.0045ZM41.1379 25.8838L42.5519 24.4698L46.7931 28.711L45.3792 30.1251L41.1379 25.8838ZM57.3951 40.7275C57.014 41.0904 56.5079 41.2927 55.9816 41.2927C55.4554 41.2927 54.9493 41.0904 54.5681 40.7275L46.0861 32.2455L48.9131 29.4175L57.3951 37.8995C57.7679 38.2758 57.977 38.7839 57.977 39.3135C57.977 39.8431 57.7679 40.3513 57.3951 40.7275ZM34.8797 53.3084H34.17V50.8993C34.1692 50.1069 33.8541 49.3473 33.294 48.7869C32.7338 48.2266 31.9743 47.9113 31.1819 47.9102H14.6983C13.9059 47.9113 13.1462 48.2265 12.5859 48.7868C12.0256 49.3472 11.7103 50.1068 11.7093 50.8993V53.3084H10.9996C10.7345 53.3084 10.4802 53.4138 10.2928 53.6012C10.1053 53.7887 10 54.0429 10 54.308C10 54.5732 10.1053 54.8274 10.2928 55.0149C10.4802 55.2023 10.7345 55.3076 10.9996 55.3076H34.8797C35.1448 55.3076 35.399 55.2023 35.5865 55.0149C35.774 54.8274 35.8793 54.5732 35.8793 54.308C35.8793 54.0429 35.774 53.7887 35.5865 53.6012C35.399 53.4138 35.1448 53.3084 34.8797 53.3084ZM32.1708 53.3084H13.7084V50.8993C13.7088 50.6368 13.8132 50.3853 13.9987 50.1997C14.1843 50.0141 14.4359 49.9098 14.6983 49.9094H31.1819C31.4443 49.9098 31.6957 50.0142 31.8811 50.1998C32.0665 50.3854 32.1707 50.6369 32.1708 50.8993V53.3084Z" fill="url(#paint3_linear_11909_41689)"/>
<defs>
<linearGradient id="paint0_linear_11909_41689" x1="11.6797" y1="38.7209" x2="16.9222" y2="37.3295" gradientUnits="userSpaceOnUse">
<stop stop-color="#0575E6"/>
<stop offset="1" stop-color="#021B79"/>
</linearGradient>
<linearGradient id="paint1_linear_11909_41689" x1="4" y1="39.5957" x2="23.992" y2="30.3994" gradientUnits="userSpaceOnUse">
<stop stop-color="#0575E6"/>
<stop offset="1" stop-color="#021B79"/>
</linearGradient>
<linearGradient id="paint2_linear_11909_41689" x1="12.5547" y1="29.7546" x2="15.4327" y2="28.4307" gradientUnits="userSpaceOnUse">
<stop stop-color="#0575E6"/>
<stop offset="1" stop-color="#021B79"/>
</linearGradient>
<linearGradient id="paint3_linear_11909_41689" x1="10" y1="45.0521" x2="58.7213" y2="21.0123" gradientUnits="userSpaceOnUse">
<stop stop-color="#0575E6"/>
<stop offset="1" stop-color="#021B79"/>
</linearGradient>
</defs>
</svg>
